X: 361
T: Huangyandong da shengli
%%abc-version 2.0
%%abcx-abcm2ps-target-version 5.9.1 (29 Sep 2008)
%%abc-creator hum2abc beta
%%abcx-conversion-date 2013/10/02 07:52:30
%%abc-edited-by Helmut Schaffrath
%%humdrum-veritas 1918340577
%%humdrum-veritas-data 2783790482
%%continueall 1
%%barnumbers 0
L: 1/16
M: 2/4
K: A
B2 F A B2 F A [I:setbarnb 1]| 
B2 F A B2 A F | 
E F A2 A2 F E | 
F E D CB,4 | 
B2> A2 F2 F E | 
F2 G2 F2 z2 | 
E F A2 A F E2 | 
F E D CB,4 |]  



